packages/dnb-eufemia/assets/icons/vintage_car_medium.svg

<svg width="24" height="24" viewBox="0 0 24 24" fill="none" xmlns="http://www.w3.org/2000/svg">
<path d="M20.25 15V11.25M20.25 15C21.9069 15 23.25 16.3431 23.25 18C23.25 19.6569 21.9069 21 20.25 21C17.9692 21 16.533 18.4333 17.6513 16.5M20.25 15C19.1396 15 18.1701 15.6033 17.6513 16.5M20.25 11.25V7.5M20.25 11.25C20.25 10.433 19.567 9.75 18.75 9.75H14.25M14.25 9.75V3M14.25 9.75H8.25M14.25 3L16.5 3.75M14.25 3H8.25M8.25 9.75V3M8.25 9.75H2.25M10.5 12.75H9M8.25 3H3.75C2.933 3 2.25 3.683 2.25 4.5V9.75M17.6513 16.5H6.34865M6.34865 16.5C5.52948 15.0839 3.65754 14.5871 2.25 15.4013M6.34865 16.5C7.46699 18.4333 6.03082 21 3.75 21C2.09315 21 0.75 19.6569 0.75 18C0.75 16.8896 1.3533 15.9201 2.25 15.4013M2.25 15.4013V9.75" stroke="black" stroke-width="1.5" stroke-linecap="round" stroke-linejoin="round"/>
</svg>

<svg width="24" height="24" viewBox="0 0 24 24" fill="none" xmlns="http://www.w3.org/2000/svg"><path d="M20.25 15v-3.75m0 3.75a3 3 0 1 1 0 6c-2.28 0-3.717-2.567-2.599-4.5M20.25 15a3 3 0 0 0-2.599 1.5m2.599-5.25V7.5m0 3.75c0-.817-.683-1.5-1.5-1.5h-4.5m0 0V3m0 6.75h-6m6-6.75 2.25.75M14.25 3h-6m0 6.75V3m0 6.75h-6m8.25 3H9M8.25 3h-4.5c-.817 0-1.5.683-1.5 1.5v5.25m15.401 6.75H6.35m0 0c-.82-1.416-2.691-1.913-4.099-1.099M6.349 16.5C7.467 18.433 6.03 21 3.75 21a3 3 0 0 1-1.5-5.599m0 0V9.75" stroke="#000" stroke-width="1.5" stroke-linecap="round" stroke-linejoin="round"/></svg>
